X: 43
T:Old Hag You Have Killed me
R:Jig
Z:Added by Alf Warnock
M:6/8
L:1/8
K:G
G|FED c2A|ded cAG|ABA ABG|ABA A2G|
FED c2A|ded cAF|GAF GcA|GAF G2:|
de|fef gfg|afd cAG|ABA A2G|ABA Ade|
fef gfg|afd cAF|GAF GcA|GAG G2:|

